flaticon/symbols/leo.svg

<svg xmlns="http://www.w3.org/2000/svg" width="32" height="32" viewBox="0 0 24 24">
    <path d="M 12 0 C 5.382812 0 0 5.382812 0 12 C 0 18.617188 5.382812 24 12 24 C 18.617188 24 24 18.617188 24 12 C 24 5.382812 18.617188 0 12 0 Z M 12 23.171875 C 5.839844 23.171875 0.828125 18.160156 0.828125 12 C 0.828125 5.839844 5.839844 0.828125 12 0.828125 C 18.160156 0.828125 23.171875 5.839844 23.171875 12 C 23.171875 18.160156 18.160156 23.171875 12 23.171875 Z M 12 23.171875"/>
    <path d="M 19.035156 14.070312 C 18.804688 14.070312 18.621094 14.253906 18.621094 14.484375 C 18.621094 15.964844 17.414062 17.171875 15.929688 17.171875 L 15.886719 17.171875 C 15.074219 17.160156 14.386719 16.703125 14.046875 15.953125 C 13.691406 15.167969 13.8125 14.273438 14.367188 13.621094 C 14.980469 12.894531 15.519531 12.003906 15.972656 10.972656 C 16.539062 9.679688 16.445312 8.183594 15.722656 6.96875 C 15.03125 5.8125 13.878906 5.085938 12.5625 4.980469 C 12.445312 4.96875 12.328125 4.964844 12.207031 4.964844 C 9.730469 4.964844 7.863281 6.746094 7.863281 9.101562 L 7.863281 11.617188 C 6.347656 11.820312 5.171875 13.117188 5.171875 14.691406 C 5.171875 16.402344 6.5625 17.792969 8.277344 17.792969 C 9.988281 17.792969 11.378906 16.402344 11.378906 14.691406 C 11.378906 13.117188 10.207031 11.820312 8.691406 11.617188 L 8.691406 9.101562 C 8.691406 7.214844 10.203125 5.792969 12.207031 5.792969 C 12.304688 5.792969 12.402344 5.796875 12.496094 5.804688 C 13.542969 5.890625 14.457031 6.46875 15.011719 7.390625 C 15.597656 8.375 15.671875 9.589844 15.214844 10.636719 C 14.792969 11.597656 14.296875 12.421875 13.734375 13.085938 C 12.972656 13.984375 12.800781 15.214844 13.292969 16.292969 C 13.761719 17.328125 14.75 17.980469 15.871094 18 L 15.929688 18 C 17.871094 18 19.449219 16.421875 19.449219 14.484375 C 19.449219 14.253906 19.261719 14.070312 19.035156 14.070312 Z M 10.550781 14.691406 C 10.550781 15.945312 9.53125 16.964844 8.277344 16.964844 C 7.019531 16.964844 6 15.945312 6 14.691406 C 6 13.433594 7.019531 12.414062 8.277344 12.414062 C 9.53125 12.414062 10.550781 13.433594 10.550781 14.691406 Z M 10.550781 14.691406"/>
</svg>

<svg xmlns="http://www.w3.org/2000/svg" width="32" height="32" viewBox="0 0 24 24">
    <path d="M12 0C5.383 0 0 5.383 0 12s5.383 12 12 12 12-5.383 12-12S18.617 0 12 0zm0 23.172C5.84 23.172.828 18.16.828 12 .828 5.84 5.84.828 12 .828 18.16.828 23.172 5.84 23.172 12c0 6.16-5.012 11.172-11.172 11.172zm0 0"/>
    <path d="M19.035 14.07a.412.412 0 0 0-.414.414 2.693 2.693 0 0 1-2.691 2.688h-.043c-.813-.012-1.5-.469-1.84-1.219a2.18 2.18 0 0 1 .32-2.332c.613-.726 1.153-1.617 1.606-2.648a4.396 4.396 0 0 0-.25-4.004c-.692-1.157-1.844-1.883-3.16-1.989a3.555 3.555 0 0 0-.356-.015c-2.477 0-4.344 1.781-4.344 4.137v2.515a3.106 3.106 0 0 0-2.691 3.074 3.104 3.104 0 0 0 6.207 0 3.103 3.103 0 0 0-2.688-3.074V9.102c0-1.887 1.512-3.309 3.516-3.309.098 0 .195.004.29.012 1.046.086 1.96.664 2.515 1.586.586.984.66 2.199.203 3.246-.422.96-.918 1.785-1.48 2.449a2.995 2.995 0 0 0-.442 3.207A2.867 2.867 0 0 0 15.871 18h.059a3.522 3.522 0 0 0 3.52-3.516.414.414 0 0 0-.415-.414zm-8.484.621A2.276 2.276 0 1 1 6 14.687a2.276 2.276 0 0 1 4.55.004zm0 0"/>
</svg>
